X: 3
T: Heaton Chapel
R: reel
M: 4/4
L: 1/8
K: Edor
|:E2B2 BAFA|BABc dedB|D2A2 AGFG|ADAB AGFG|
E2B2 BAFA|BABc dedB|ABde fedf|1edBA FGFD:|2edBA Beef||
|:g2e2 edBA|Beed edBe|dBAF DE (3FED|FAdA BAFA|
g2e2 edBA|Beed edBe|dF F2 DFAB|dBAF BEE2|
g2e2 edBA|Beed edBe|dBAF DE (3FED|FAdA BAFA|
e3f gedB | dedB AFED | EDEF GedB | BAGB GAFG ||


Tune 572	Setting 28009

